X: 39408
T: Tap The Barrel
R: reel
M: 4/4
K: Gmajor
c|BAG AFD|~D3 AFD|BAG AFD|DGG G2c|
BAG AFD|~D3 AFD|BGB cAF|~G3 G2:|
e|f2d g2e|f2d cAG|g2g gbg|afd d2e|
fed g2e|f2d cAG|BAG cAF|~G3 G2:|

